X: 488
T:Tom Sullivan's Polka
N: page 198
N: heptatonic
R: Polka
M:2/4
L:1/8
K:D
| D/E/F/G/ AB | =cA AG   | Ad dc | d2 d>e  |
  fd       ed | cA A>B   | cA GE |[1 FD D2:|[2 F DD a/g/|:
  fd       ed | cA Ad/e/ | fd ef | g2 a>g  |
  fd       ed | cA A>B   | cA GE |[1 FD D a/g/:|[2 FD D2 ||
